X: 25
T: Qianshan houshan qu daduan
%%abc-version 2.0
%%abcx-abcm2ps-target-version 5.9.1 (29 Sep 2008)
%%abc-creator hum2abc beta
%%abcx-conversion-date 2013/10/02 07:52:29
%%abc-edited-by Helmut Schaffrath
%%humdrum-veritas 1941986213
%%humdrum-veritas-data 1142808080
%%continueall 1
%%barnumbers 0
L: 1/8
M: 2/4
K: D
AB2e/ F/ [I:setbarnb 1]| 
AA2F | 
D B, E F | 
B,4 | 
AB2e/ F/ | 
AA2F | 
D B, A F/ D/ | 
E4 |]  



